X: 027
T: Trip to Bristol
B: 204 Favourite Country Dances
N: Published by Straight & Skillern, London ca.1775
F: http://imslp.org/wiki/204_Favourite_Country_Dances_(Various) p.14 #27
Z: 2014 John Chambers <jc:trillian.mit.edu>
M: 6/8
L: 1/8
K: D
% - - - - - - - - - - - - - - - - - - - - - - - - -
|:\
D2d dcd | E2e ede | fef ged | cBA GFE |\
D2d dcd | E2e ede | fed cdB | A3 A,3 :|
|:\
A2a a^ga | A2=g gfg | fed cBA | GFE DCB, |\
A,2a a^ga | A2g gfg | fef gec | d3 D3 :|
% - - - - - - - - - - - - - - - - - - - - - - - - -
%%begintext align
%% The 1st & 2d Cu. foot it & right hands across .|
%% foot it & left back again :| lead thro' the 3d
%% Cu. & cast up into the 2d Cu.s place .|. lead up
%% to the top foot it & cast off :|:
%%endtext

%%sep 1 1 500
%%sep 1 1 500
